public/assets/valentines-day/bg-valentine.svg

<?xml version="1.0" encoding="UTF-8" standalone="no"?>
<svg
   width="2219.5999"
   height="1620.4"
   viewBox="0 0 2219.5999 1620.4"
   version="1.1"
   id="svg80"
   xmlns:xlink="http://www.w3.org/1999/xlink"
   xmlns="http://www.w3.org/2000/svg"
   xmlns:svg="http://www.w3.org/2000/svg">
  <defs
     id="defs28">
    <linearGradient
       id="valentineGradient"
       x1="0"
       y1="0"
       x2="1440"
       y2="1440"
       gradientTransform="matrix(1.3333333,0,0,0.75,133.6,278.8)"
       gradientUnits="userSpaceOnUse">
      <stop
         offset="0%"
         style="stop-color:#FFF4D4;stop-opacity:1"
         id="stop2" />
      <stop
         offset="30%"
         style="stop-color:#FFD4A3;stop-opacity:1"
         id="stop4" />
      <stop
         offset="60%"
         style="stop-color:#FFD4E5;stop-opacity:1"
         id="stop6" />
      <stop
         offset="100%"
         style="stop-color:#FFE8F0;stop-opacity:1"
         id="stop8" />
    </linearGradient>
    <radialGradient
       id="goldenGlow">
      <stop
         offset="0%"
         style="stop-color:#FFD4A3;stop-opacity:0.8"
         id="stop11" />
      <stop
         offset="40%"
         style="stop-color:#FFF4D4;stop-opacity:0.5"
         id="stop13" />
      <stop
         offset="100%"
         style="stop-color:#FFD4A3;stop-opacity:0"
         id="stop15" />
    </radialGradient>
    <radialGradient
       id="pinkGlow"
       gradientTransform="matrix(1.0660652,0,0,0.93802892,133.6,278.8)"
       cx="1219.4376"
       cy="692.9424"
       fx="1219.4376"
       fy="692.9424"
       r="737.29071"
       gradientUnits="userSpaceOnUse">
      <stop
         offset="0%"
         style="stop-color:#FFD4E5;stop-opacity:0.6"
         id="stop18" />
      <stop
         offset="50%"
         style="stop-color:#FFE8F0;stop-opacity:0.3"
         id="stop20" />
      <stop
         offset="100%"
         style="stop-color:#FFD4E5;stop-opacity:0"
         id="stop22" />
    </radialGradient>
    <filter
       id="softBlur"
       x="-0.024"
       y="-0.032"
       width="1.048"
       height="1.064">
      <feGaussianBlur
         in="SourceGraphic"
         stdDeviation="12"
         id="feGaussianBlur25" />
    </filter>
    <radialGradient
       xlink:href="#goldenGlow"
       id="radialGradient84"
       gradientTransform="matrix(1.0719714,0,0,0.93286067,133.6,278.8)"
       cx="559.71639"
       cy="428.78858"
       fx="559.71639"
       fy="428.78858"
       r="684.34658"
       gradientUnits="userSpaceOnUse" />
    <radialGradient
       xlink:href="#goldenGlow"
       id="radialGradient86"
       gradientTransform="matrix(1.1459857,0,0,0.87261126,133.6,278.8)"
       cx="837.70679"
       cy="229.19714"
       fx="837.70679"
       fy="229.19714"
       r="548.69795"
       gradientUnits="userSpaceOnUse" />
  </defs>
  <!-- Base gradient -->
  <rect
     width="1920"
     height="1080"
     fill="url(#valentineGradient)"
     id="rect30"
     x="133.60001"
     y="278.79999"
     style="fill:url(#valentineGradient)" />
  <!-- Golden glow (center-left) -->
  <ellipse
     cx="733.59998"
     cy="678.79999"
     rx="700"
     ry="600"
     fill="url(#goldenGlow)"
     filter="url(#softBlur)"
     id="ellipse32"
     style="fill:url(#radialGradient84)" />
  <!-- Pink glow (center-right) -->
  <ellipse
     cx="1433.6"
     cy="928.79999"
     rx="750"
     ry="650"
     fill="url(#pinkGlow)"
     filter="url(#softBlur)"
     id="ellipse34"
     style="fill:url(#pinkGlow)" />
  <!-- Golden glow (top) -->
  <ellipse
     cx="1093.6"
     cy="478.79999"
     rx="600"
     ry="450"
     fill="url(#goldenGlow)"
     filter="url(#softBlur)"
     opacity="0.7"
     id="ellipse36"
     style="fill:url(#radialGradient86)" />
  <!-- Subtle sparkles -->
  <g
     opacity="0.4"
     id="g58"
     transform="translate(133.6,278.8)">
    <circle
       cx="300"
       cy="250"
       r="3"
       fill="#ffffff"
       id="circle38" />
    <circle
       cx="800"
       cy="200"
       r="2.5"
       fill="#fff4d4"
       id="circle40" />
    <circle
       cx="1200"
       cy="300"
       r="3"
       fill="#ffffff"
       id="circle42" />
    <circle
       cx="1600"
       cy="250"
       r="2"
       fill="#ffd4a3"
       id="circle44" />
    <circle
       cx="500"
       cy="500"
       r="2.5"
       fill="#ffffff"
       id="circle46" />
    <circle
       cx="1400"
       cy="600"
       r="3"
       fill="#fff4d4"
       id="circle48" />
    <circle
       cx="700"
       cy="750"
       r="2"
       fill="#ffffff"
       id="circle50" />
    <circle
       cx="1100"
       cy="850"
       r="2.5"
       fill="#ffd4a3"
       id="circle52" />
    <circle
       cx="400"
       cy="900"
       r="3"
       fill="#ffffff"
       id="circle54" />
    <circle
       cx="1700"
       cy="800"
       r="2"
       fill="#fff4d4"
       id="circle56" />
  </g>
  <!-- Additional smaller sparkles -->
  <g
     opacity="0.3"
     id="g70"
     transform="translate(133.6,278.8)">
    <circle
       cx="450"
       cy="350"
       r="1.5"
       fill="#ffffff"
       id="circle60" />
    <circle
       cx="950"
       cy="450"
       r="1.5"
       fill="#ffd4a3"
       id="circle62" />
    <circle
       cx="1450"
       cy="400"
       r="1.5"
       fill="#ffffff"
       id="circle64" />
    <circle
       cx="600"
       cy="650"
       r="1.5"
       fill="#fff4d4"
       id="circle66" />
    <circle
       cx="1250"
       cy="750"
       r="1.5"
       fill="#ffffff"
       id="circle68" />
  </g>
  <!-- Tiny hearts (very subtle) -->
  <g
     opacity="0.15"
     id="g76"
     transform="translate(133.6,278.8)">
    <path
       d="m 850,400 c 0,-3 2,-5 4,-5 1,0 2,1 2,2 0,-1 1,-2 2,-2 2,0 4,2 4,5 0,3 -6,7 -6,7 0,0 -6,-4 -6,-7 z"
       fill="#ffb6c1"
       id="path72" />
    <path
       d="m 1400,550 c 0,-3 2,-5 4,-5 1,0 2,1 2,2 0,-1 1,-2 2,-2 2,0 4,2 4,5 0,3 -6,7 -6,7 0,0 -6,-4 -6,-7 z"
       fill="#ffb6c1"
       id="path74" />
  </g>
  <!-- Subtle overlay for depth -->
  <rect
     width="1920"
     height="1080"
     fill="#ffffff"
     opacity="0.04"
     id="rect78"
     x="133.60001"
     y="278.79999" />
</svg>

<svg width="1920" height="1080" viewBox="0 0 1920 1080" xmlns="http://www.w3.org/2000/svg">
  <defs>
    <linearGradient id="valentineGradient" x1="0%" y1="0%" x2="100%" y2="100%">
      <stop offset="0%" style="stop-color:#FFF4D4;stop-opacity:1"/>
      <stop offset="30%" style="stop-color:#FFD4A3;stop-opacity:1"/>
      <stop offset="60%" style="stop-color:#FFD4E5;stop-opacity:1"/>
      <stop offset="100%" style="stop-color:#FFE8F0;stop-opacity:1"/>
    </linearGradient>
    
    <radialGradient id="goldenGlow">
      <stop offset="0%" style="stop-color:#FFD4A3;stop-opacity:0.8"/>
      <stop offset="40%" style="stop-color:#FFF4D4;stop-opacity:0.5"/>
      <stop offset="100%" style="stop-color:#FFD4A3;stop-opacity:0"/>
    </radialGradient>
    
    <radialGradient id="pinkGlow">
      <stop offset="0%" style="stop-color:#FFD4E5;stop-opacity:0.6"/>
      <stop offset="50%" style="stop-color:#FFE8F0;stop-opacity:0.3"/>
      <stop offset="100%" style="stop-color:#FFD4E5;stop-opacity:0"/>
    </radialGradient>
    
    <filter id="softBlur">
      <feGaussianBlur in="SourceGraphic" stdDeviation="12"/>
    </filter>
  </defs>
  
  <!-- Base gradient -->
  <rect width="1920" height="1080" fill="url(#valentineGradient)"/>
  
  <!-- Golden glow (center-left) -->
  <ellipse cx="600" cy="400" rx="700" ry="600" fill="url(#goldenGlow)" filter="url(#softBlur)"/>
  
  <!-- Pink glow (center-right) -->
  <ellipse cx="1300" cy="650" rx="750" ry="650" fill="url(#pinkGlow)" filter="url(#softBlur)"/>
  
  <!-- Golden glow (top) -->
  <ellipse cx="960" cy="200" rx="600" ry="450" fill="url(#goldenGlow)" filter="url(#softBlur)" opacity="0.7"/>
  
  <!-- Subtle sparkles -->
  <g opacity="0.4">
    <circle cx="300" cy="250" r="3" fill="#FFFFFF"/>
    <circle cx="800" cy="200" r="2.5" fill="#FFF4D4"/>
    <circle cx="1200" cy="300" r="3" fill="#FFFFFF"/>
    <circle cx="1600" cy="250" r="2" fill="#FFD4A3"/>
    <circle cx="500" cy="500" r="2.5" fill="#FFFFFF"/>
    <circle cx="1400" cy="600" r="3" fill="#FFF4D4"/>
    <circle cx="700" cy="750" r="2" fill="#FFFFFF"/>
    <circle cx="1100" cy="850" r="2.5" fill="#FFD4A3"/>
    <circle cx="400" cy="900" r="3" fill="#FFFFFF"/>
    <circle cx="1700" cy="800" r="2" fill="#FFF4D4"/>
  </g>
  
  <!-- Additional smaller sparkles -->
  <g opacity="0.3">
    <circle cx="450" cy="350" r="1.5" fill="#FFFFFF"/>
    <circle cx="950" cy="450" r="1.5" fill="#FFD4A3"/>
    <circle cx="1450" cy="400" r="1.5" fill="#FFFFFF"/>
    <circle cx="600" cy="650" r="1.5" fill="#FFF4D4"/>
    <circle cx="1250" cy="750" r="1.5" fill="#FFFFFF"/>
  </g>
  
  <!-- Tiny hearts (very subtle) -->
  <g opacity="0.15">
    <path d="M 850 400 C 850 397 852 395 854 395 C 855 395 856 396 856 397 C 856 396 857 395 858 395 C 860 395 862 397 862 400 C 862 403 856 407 856 407 C 856 407 850 403 850 400 Z" fill="#FFB6C1"/>
    <path d="M 1400 550 C 1400 547 1402 545 1404 545 C 1405 545 1406 546 1406 547 C 1406 546 1407 545 1408 545 C 1410 545 1412 547 1412 550 C 1412 553 1406 557 1406 557 C 1406 557 1400 553 1400 550 Z" fill="#FFB6C1"/>
  </g>
  
  <!-- Subtle overlay for depth -->
  <rect width="1920" height="1080" fill="#FFFFFF" opacity="0.04"/>
</svg>
